public/images/s2.svg

<svg width="92" height="92" viewBox="0 0 92 92" fill="none" xmlns="http://www.w3.org/2000/svg">
<path d="M43.36 7.06471H54.1488M43.36 11.8202H54.1488M16.3382 56.8109V60.2963C16.3382 61.8795 17.6196 63.1635 19.1997 63.1635C19.9889 63.1635 20.7053 62.8431 21.2225 62.3229C21.7416 61.8047 22.0614 61.087 22.0614 60.2963M22.0614 60.2963V58.3104M22.0614 60.2963C22.0614 61.8794 23.3429 63.1636 24.923 63.1636C25.7122 63.1636 26.4285 62.843 26.9457 62.323C27.4647 61.8048 27.7847 61.0869 27.7847 60.2963V56.6827M22.0614 58.3104C28.3156 58.2637 33.3181 53.069 33.3181 46.802V32.675C33.3181 29.551 32.0606 26.7221 30.0263 24.6684C28.5599 27.6365 25.5047 29.6764 21.9749 29.6764C20.3977 29.6764 18.9151 29.2691 17.6268 28.5537C14.513 26.8246 10.6608 29.0143 10.6321 32.5813C10.6318 32.6125 10.6316 32.6438 10.6316 32.675V46.9448C10.6316 53.2508 15.7571 58.3576 22.0614 58.3104ZM24.836 63.1618V64.0417C24.836 64.8324 24.5159 65.5501 23.9971 66.0683C23.4799 66.5883 22.7635 66.9089 21.9743 66.9089M21.9743 66.9089C20.3942 66.9089 19.1128 65.6249 19.1128 64.0417V63.1618M21.9743 66.9089C20.4553 66.9089 19.2247 68.1419 19.2247 69.6641V71.2308M21.9743 66.9089C22.7339 66.9089 23.4211 67.2175 23.9186 67.7161C24.4197 68.2146 24.7258 68.903 24.7258 69.6641V71.2308M9.65153 71.2301V66.8239C9.65153 62.2414 12.6579 58.3644 16.799 57.0604M27.1288 57.0524C31.2845 58.3516 34.2988 62.2334 34.2988 66.8239V71.2301M7.0267 37.9913V26.5691C7.0267 24.3922 7.63757 22.3589 8.69817 20.6326M12.429 16.8962C14.1534 15.8334 16.1808 15.2213 18.3498 15.2213C22.3622 15.2213 25.8838 17.3131 27.8954 20.4659C28.754 18.995 30.3458 18.005 32.1696 18.005C34.9052 18.005 37.1239 20.2263 37.1239 22.9675V38.08M10.6304 45.5556H8.50121C6.33786 45.5556 4.58281 43.7994 4.58281 41.6317C4.58281 40.5478 5.02034 39.5651 5.72965 38.8545C6.43878 38.1438 7.41953 37.7054 8.50121 37.7054H10.6304M33.3193 37.7054H35.4485C37.6118 37.7054 39.3669 39.4616 39.3669 41.6316C39.3669 42.7155 38.9293 43.6959 38.2202 44.4065C37.5109 45.1172 36.5303 45.5556 35.4485 45.5556H33.3193M67.2511 59.8777C63.2335 61.2545 60.3421 65.0672 60.3421 69.5613V75.8277C60.3421 77.5316 58.9587 78.9188 57.258 78.9188C55.5575 78.9188 54.1739 77.5325 54.1739 75.8286V69.0006C54.1739 66.1738 51.8787 63.8741 49.0577 63.8741M60.3421 84.413V89.9999L8.15342 90V77.9399M84.2844 65.8213C84.7395 66.9799 84.9892 68.2413 84.9892 69.5631V90H56.8134M61.323 39.3096V49.6833C61.323 53.9946 63.7187 57.747 67.2509 59.6738M77.1878 65.8213H90V33.7031C90 25.8523 83.6488 19.4883 75.812 19.4883H73.0305C65.1955 19.4883 58.8441 25.8523 58.8441 33.7031V39.3095H67.251V65.8213H71.8867M48.1531 71.2308H4.65771C3.18986 71.2308 2 72.4231 2 73.8939V75.2778C2 76.7486 3.18986 77.9408 4.65771 77.9408H48.4008M60.3421 71.2308H54.1732M59.5064 77.9408H55.009M66.3622 69.5607V75.8286C66.3622 80.8587 62.2781 84.9511 57.258 84.9511C52.2379 84.9511 48.1538 80.8587 48.1538 75.8286V69.9063M48.1538 69.9063H46.7479C45.0855 69.9063 43.7379 68.556 43.7379 66.8902C43.7379 65.2244 45.0855 63.8741 46.7479 63.8741H49.0577M48.1538 69.9063L54.174 69.9063M49.0577 63.8741L50.9843 58.9253M43.1646 2H59.7086C62.2041 2 64.2272 4.02719 64.2272 6.52791V16.4767C64.2272 18.9774 62.2041 21.0046 59.7086 21.0046H53.1569L48.4349 25.7362C47.1651 27.0085 44.9944 26.1073 44.9944 24.3083V21.0046H43.1646C40.6687 21.0046 38.6458 18.9774 38.6458 16.4767V6.52791C38.6458 4.02719 40.6687 2 43.1646 2Z" stroke="#001489" stroke-width="2.5" stroke-miterlimit="10" stroke-linecap="round" stroke-linejoin="round"/>
</svg>

<svg xmlns="http://www.w3.org/2000/svg" width="92" height="92" fill="none"><path stroke="#001489" stroke-linecap="round" stroke-linejoin="round" stroke-miterlimit="10" stroke-width="2.5" d="M43.36 7.065h10.789M43.36 11.82h10.789m-37.81 44.99v3.486a2.865 2.865 0 0 0 2.86 2.867c.79 0 1.506-.32 2.023-.84.52-.518.84-1.236.84-2.027m0 0V58.31m0 1.986a2.865 2.865 0 0 0 2.861 2.868c.79 0 1.506-.321 2.023-.841a2.86 2.86 0 0 0 .839-2.027v-3.613M22.06 58.31c6.255-.046 11.257-5.241 11.257-11.508V32.675c0-3.124-1.257-5.953-3.292-8.007a8.977 8.977 0 0 1-12.4 3.886c-3.113-1.73-6.965.46-6.994 4.027v14.364c0 6.306 5.125 11.413 11.43 11.365m2.775 4.852v.88c0 .79-.32 1.508-.839 2.026-.517.52-1.233.84-2.023.84m0 0a2.865 2.865 0 0 1-2.861-2.866v-.88m2.861 3.747a2.75 2.75 0 0 0-2.75 2.755v1.567m2.75-4.322c.76 0 1.447.308 1.945.807.5.499.807 1.187.807 1.948v1.567m-15.074 0v-4.407c0-4.583 3.006-8.46 7.147-9.764m10.33-.008a10.235 10.235 0 0 1 7.17 9.772v4.406M7.027 37.991V26.57c0-2.177.61-4.21 1.671-5.936m3.731-3.737a11.25 11.25 0 0 1 5.92-1.675c4.013 0 7.535 2.092 9.546 5.245a4.95 4.95 0 0 1 4.275-2.461 4.96 4.96 0 0 1 4.954 4.963V38.08M10.63 45.556H8.501a3.92 3.92 0 0 1-3.918-3.924A3.92 3.92 0 0 1 8.5 37.705h2.13m22.688 0h2.13a3.92 3.92 0 0 1 3.918 3.927 3.91 3.91 0 0 1-1.147 2.775c-.71.71-1.69 1.149-2.771 1.149h-2.13m33.932 14.322a10.235 10.235 0 0 0-6.909 9.683v6.267a3.09 3.09 0 0 1-3.084 3.09 3.09 3.09 0 0 1-3.084-3.09v-6.827c0-2.827-2.295-5.127-5.116-5.127m11.284 20.539V90H8.153V77.94M84.284 65.82a10.2 10.2 0 0 1 .705 3.742V90H56.813m4.51-50.69v10.373c0 4.312 2.396 8.064 5.928 9.99m9.937 6.148H90V33.703c0-7.85-6.351-14.215-14.188-14.215h-2.781c-7.836 0-14.187 6.364-14.187 14.215v5.606h8.407v26.512h4.636m-23.734 5.41H4.658A2.66 2.66 0 0 0 2 73.894v1.384a2.66 2.66 0 0 0 2.658 2.663H48.4m11.941-6.71h-6.169m5.333 6.71H55.01m11.353-8.38v6.268c0 5.03-4.084 9.122-9.104 9.122s-9.104-4.092-9.104-9.122v-5.923m0 0h-1.406a3.013 3.013 0 0 1-3.01-3.016 3.013 3.013 0 0 1 3.01-3.016h2.31m-.904 6.032h6.02m-5.116-6.032 1.926-4.949M43.164 2H59.71a4.523 4.523 0 0 1 4.518 4.528v9.949c0 2.5-2.023 4.528-4.518 4.528h-6.552l-4.722 4.731c-1.27 1.273-3.44.371-3.44-1.428v-3.303h-1.83a4.523 4.523 0 0 1-4.52-4.528v-9.95c0-2.5 2.024-4.527 4.52-4.527"/></svg>
